icons/ticket-arrow-right-outline.svg

<svg xmlns="http://www.w3.org/2000/svg" width="24" height="24" viewBox="0 0 24 24">
  <path d="M20,4 C21.6568542,4 23,5.34314575 23,7 L23,7 L23,10 C23,10.5522847 22.5522847,11 22,11 L22,11 L21,11 C20.4756765,11 20.041054,11.4054732 20.0048111,11.8874652 L20.0048111,11.8874652 L20,12 C20,12.5243235 20.4054732,12.958946 20.8874652,12.9951889 L20.8874652,12.9951889 L21,13 L22,13 C22.5522847,13 23,13.4477153 23,14 L23,14 L23,17 C23,18.6568542 21.6568542,20 20,20 L20,20 L4,20 C2.34314575,20 1,18.6568542 1,17 L1,17 L1,14 C1,13.4477153 1.44771525,13 2,13 L2,13 L3,13 C3.52432346,13 3.95894602,12.5945268 3.99518895,12.1125348 L3.99518895,12.1125348 L4,12 C4,11.4756765 3.59452679,11.041054 3.11253483,11.0048111 L3.11253483,11.0048111 L3,11 L2,11 C1.44771525,11 1,10.5522847 1,10 L1,10 L1,7 C1,5.34314575 2.34314575,4 4,4 L4,4 Z M20,6 L4,6 C3.44771525,6 3,6.44771525 3,7 L3,7 L3,9 L3.22283965,9.00819622 C4.78446558,9.12340873 6,10.4263275 5.99932532,12.0367275 L5.99932532,12.0367275 L5.99180378,12.2228396 C5.87659127,13.7844656 4.57367247,15 3,15 L3,15 L3,17 C3,17.5128358 3.38604019,17.9355072 3.88337887,17.9932723 L3.88337887,17.9932723 L4,18 L20,18 C20.5522847,18 21,17.5522847 21,17 L21,17 L21,14.999 L20.7771604,14.9918038 C19.2155344,14.8765913 18,13.5736725 18.0006747,11.9632725 L18.0006747,11.9632725 L18.0081962,11.7771604 C18.1234087,10.2155344 19.4263275,9 21,9 L21,9 L21,7 C21,6.44771525 20.5522847,6 20,6 L20,6 Z M15.767,11.359 L15.7803112,11.374551 L15.7837744,11.3788907 L15.779,11.374 L15.8036654,11.4046934 L15.8036654,11.4046934 C15.8215099,11.4288693 15.8382813,11.453725 15.8539326,11.4793398 L15.8753288,11.5159379 L15.8753288,11.5159379 C15.8862061,11.5357061 15.8966234,11.5561086 15.9063462,11.5769009 L15.9287745,11.628664 L15.9287745,11.628664 C15.9366843,11.6484208 15.9438775,11.6682023 15.9504533,11.6882636 C15.9552713,11.7031487 15.9599023,11.7185367 15.9641549,11.734007 C15.9701664,11.7555635 15.9753602,11.7772539 15.9798348,11.7992059 C15.9832978,11.8166247 15.9863719,11.834051 15.9889822,11.8515331 L15.996002,11.909968 L15.996002,11.909968 C15.99693,11.9208131 15.9976744,11.9308872 15.9982669,11.9409686 L15.9998198,11.980824 L16,12 L16,12 L15.999,12.019 L15.9982669,12.0590314 L15.997,12.075 L15.997,12.059 L15.996,12.081 L15.9889807,12.1489612 L15.9889807,12.1489612 C15.9863719,12.165949 15.9832978,12.1833753 15.9797599,12.2007258 C15.9753602,12.2227461 15.9701664,12.2444365 15.964279,12.2658396 C15.9599023,12.2814633 15.9552713,12.2968513 15.9502619,12.3121425 C15.9438775,12.3317977 15.9366843,12.3515792 15.928896,12.3710585 L15.9063266,12.4232215 L15.9063266,12.4232215 C15.8966234,12.4438914 15.8862061,12.4642939 15.8751242,12.484277 C15.8685012,12.4963944 15.8613931,12.5086131 15.8540045,12.5207088 C15.8382813,12.546275 15.8215099,12.5711307 15.8036865,12.5951593 C15.7992821,12.6012086 15.7948255,12.6070733 15.7902954,12.6128994 C15.7849289,12.6196628 15.7826279,12.6225624 15.7803112,12.625449 L15.7071068,12.7071068 L12.7071068,15.7071068 C12.3165825,16.0976311 11.6834175,16.0976311 11.2928932,15.7071068 C10.9324093,15.3466228 10.9046797,14.7793918 11.2097046,14.3871006 L11.2928932,14.2928932 L12.585,13 L9,13 C8.44771525,13 8,12.5522847 8,12 C8,11.4871642 8.38604019,11.0644928 8.88337887,11.0067277 L9,11 L12.585,11 L11.2928932,9.70710678 C10.9023689,9.31658249 10.9023689,8.68341751 11.2928932,8.29289322 C11.6533772,7.93240926 12.2206082,7.90467972 12.6128994,8.20970461 L12.7071068,8.29289322 L15.7071068,11.2928932 L15.775,11.37 L15.767,11.359 Z"/>
</svg>

<svg xmlns="http://www.w3.org/2000/svg" viewBox="0 0 24 24">
  <path d="M20 4a3 3 0 0 1 3 3v3a1 1 0 0 1-1 1h-1a1 1 0 0 0-1 .89V12c0 .52.4.96.89 1H22a1 1 0 0 1 1 1v3a3 3 0 0 1-3 3H4a3 3 0 0 1-3-3v-3a1 1 0 0 1 1-1h1a1 1 0 0 0 1-.89V12a1 1 0 0 0-.89-1H2a1 1 0 0 1-1-1V7a3 3 0 0 1 3-3zm0 2H4a1 1 0 0 0-1 1v2h.22A3 3 0 0 1 6 12.05v.18A3 3 0 0 1 3 15v2a1 1 0 0 0 .88 1H20a1 1 0 0 0 1-1v-2h-.22A3 3 0 0 1 18 11.95v-.18A3 3 0 0 1 21 9V7a1 1 0 0 0-1-1zm-4.23 5.36.01.01.02.03.05.08.03.04.03.06.02.05a.99.99 0 0 1 .06.22v.09l.01.04v.09-.01.02l-.01.07a1.08 1.08 0 0 1-.06.22l-.02.05a1.02 1.02 0 0 1-.13.2l-.07.09-3 3a1 1 0 0 1-1.5-1.32l.08-.1L12.6 13H9a1 1 0 0 1-.12-2h3.71l-1.3-1.3a1 1 0 0 1 1.32-1.49l.1.08 3 3 .06.08v-.01z"/>
</svg>
